X: 1930
T: Arrane Ghelby
R: waltz
M: 3/4
K: Bminor
B4- B2|A2 B2 c2|d4- d2|c2 B2 A2|
B4- B2|A2 G2 F2|F2 G2 A2|B6:|
d3 e f2|d2 e2 f2|d3 e f2|f2 e2 d2|
c3 d e2|c2 d2 e2|d2 c2 B2|f4 e2|
d3 c B2|A2 G2 F2|d3 c B2|A2 G2 F2|
d2 c2 B2|A2 G2 F2|F2 G2 A2|B6||
"variation"
F2 B2 B2|B4 F2|A3 G F E|F4 F2|
F2 d2 d2|c4 B2|A4 AB|c2 d2 e2|
f3 e d2|d3 c B2|B3 A B2|F4 F2|
E4 E2|F4 B2|B3 c d2|B6||

